!!!OTL: AUF AUF WER DEUTSCHE FREIHEIT LIEBET
!!!ARE: Europa, Mitteleuropa, Deutschland
!!!SCT: F0418
!!!YEM: Copyright 1995, estate of Helmut Schaffrath.
**kern
*ICvox
*Ivox
*M4/4
*k[f#c#]
*D:
{8A
=1
4.d
8D
8.D
16E
8.F#
16G#
=2
8.A
16G#
4A
8r}
{8A
8F#
8D
=3
4.B
8B
4.A
8G
=4
4F#
2r
8r}
{8A
=5
4.d
8B
8.G#
16E
8.F#
16G#
=6
8.A
16G#
4A
8r}
{8A
8A
8c#
=7
4.B
8B
4e
4G#
=8
4A
4.r}
{8A
8A
8A
=9
4.B
8B
4.A
8A
=10
4G
4G
8r}
{8E
8E
8G
=11
4.F#
8A
4A
8G
8F#
=12
4E
4.r}
{8A
8B
8c#
=13
4.d
8d
4.e
8G
=14
4G
4F#
8r}
{8d
8d
8d
=15
4.E
8c#
4.A
8G
=16
2F#
8.r}
{16d
8.c#
16d
=17
4B
4G
4E
4A
=18
4D
2r
8r}
==
!!!AGN: Vaterlands -, Heimat - Lied, nationalistisch, Krieg
!!!ONB: ESAC (Essen Associative Code) Database: FINK
!!!AMT: simple quadruple
!!!AIN: vox
!!!EED: Helmut Schaffrath
!!!EEV: 1.0
*-
